X: 41041
T: Trip To London
R: jig
M: 6/8
K: Amajor
|:cAF E3|A3 cde|d2 B BAB|gfe ^de=d|
cAF E3|A3 cde|dfb cea|BAG Aed:|
|:cee fee|aee edc|d2 d ede|def fed|
cee fee|aee edc|d2 d ceB|BAG Aed:|

